X:1
T:Wellesley, 87.87
T:Wellesley, 87.87
T:Lizzie Shove Tourjée Estabrook, 1878
T:Public Domain Courtesy of the Cyber Hymnal™
C:Lizzie Shove Tourjée Estabrook, 1878
Z:Public Domain
Z:Courtesy of the Cyber Hymnal™
%%score ( 1 2 ) ( 3 4 )
L:1/8
Q:1/4=108
M:4/4
K:C
V:1 treble 
V:2 treble 
V:3 bass 
V:4 bass 
V:1
 [EG]2 (cd) [Fc]2 [FB]2 | [FG]2 (de) [Ed]2 [Ec]2 | [CA]2 [CG]2 F2 E2 | D2 [C^F]2 [B,G]4 | %4
 [FG]2 (AG) [EG]2 (ec) | [FG]2 (AG) [EG]2 [Ec]2 | [Ec]2 [Fc]2 (ce) ([Ec][FA]) | %7
 [DG]2 [Fd]2 [Ec]4 |] %8
V:2
 x2 E2 x4 | x2 F2 x4 | x4 (B,D) (C^C) | D2 x6 | x2 F2 x E2 x | x2 F2 x4 | x4 E2 x2 | x8 |] %8
V:3
 [C,G,]2 [C,G,]2 [D,G,]2 [G,,G,]2 | [B,,G,]2 [G,,G,]2 [C,G,]2 [C,G,]2 | F,2 [E,G,]2 G,2 G,2 | %3
 [D,^F,]2 [D,A,]2 [G,,G,]4 | [G,B,]2 [G,B,]2 [C,C]2 [C,G,]2 | [B,,G,]2 [G,,B,]2 [C,C]2 [C,G,]2 | %6
 [A,C]2 [_A,C]2 ([G,C][^G,B,]) (=A,[F,C]) | (CB,) (A,B,) [C,C]4 |] %8
V:4
 x8 | x8 | F,2 (D,B,,) (C,A,,) x2 | x8 | x8 | x8 | x8 | G,2 G,,2 x4 |] %8

